X: 416
T: A Trip To Inishturk
R: reel
M: 4/4
K: Adorian
~A3G EAAB|AGED EGGE|DCB,D GABd|dBeB dBcB|
~A3G EAAB|AGED EGGE|DCB,D GABd|1 dBAd BGcB:|2 dBAd BG~G2||
|:(3def ga gedc|Bdde (3dBA GE|DCB,D GABd|dBGA BA~A2|
dgga gedc|Bddc BAGE|DCB,D GABd|1 dBAd BG~G2:|2 dBAd BGcB||

